X:264
T:An Buachaill Dreoite
T:An Buachaillin Dreoite
R:jig
H:Also as fling#22
D:Tommy Keane & Jacqueline McCarthy: The Wind among the Reeds
D:Catherine McEvoy, Caoimh\'in \'O Raghallaigh & M\'iche\'al \'O Raghallaigh
Z:id:hn-jig-264
M:6/8
K:G
DGG A2G | A2G ~G2F | DGG A2G | cAG ~F3 |
DGG A2G | A2G GBd | ~f3 gfd | cAG FGA :|
|: ~B3 cBc | dcA ~G3 | ~B3 GBd | cAG FGA |
~B3 cBc | d^cd efg | a2f gfd |1 cAF G2A :|2 cAF G2F ||
P:variations
|: DGG A2G | A2G G2F | DGG A2G | cAG FDC |
DGG A2G | A2G GBd | e~f2 gfd | cAG FED :|
|: BAB c2e | dcA ~G3 | A~B2 GBd | cAG FED |
BAB cBc | d^cd efg | faa gfd |1 cAG G2A :|2 cAG G2F ||
P:version 2
|: DGG ~A2G | ~A2G ~G2F | DGG ~A2G | cAG =FDC |
DGG ~A2G | ~A2G GBd | efd gfd |1 cAF G2F :|2 cAF G2A ||
|: BAB cBc | ded G2A | BAB GBd | cAG FGA |
BAB cBc | d^cd efg | a2f gfd |1 cAF G2A :|2 cAF G2F ||
P:variations version 2
|: DGG ~A2G | ~A2G ~G2F | DGG ~A2G | cAG =FDC |
DGG ~A2G | ~A2G GBd | ~f3 gfd |1 cAd G2F :|2 cAd G2A ||
|: BAB cBc | ded G2A | BAB GBd | c/B/AG E/F/GA |
BAB cBc | d^cd efg | a2f gfd |1 cAd G2A :|2 cAd G2F ||

